!!!COM: Fe/licien David
!!!CNT: Francais
!!!TXO: Francais
!!!OTL: Le Pecheur a\ sa Nacelle
!!!LYR: Charles Poncy
!!!ENC: Jacob Pegg
!!!YOR: Romantic French Song 1830-1870, David Tunley, ed., New York: Garland Publishing, Inc., 1995
!!!ODT: 1845/
!!NB: Vocal melody and text only encoded.
**kern	**silbe
*clef G2	*
*k[f#]	*
*M6/8	*
=1	=1
2.r	.
=2	=2
2.r	.
=3	=3
{4dd	{Glis-
8ee	-se,
8dd	glis-
8cc	-se
8b	fur-
=4	=4
(4a	-ti-
8cc)	|
4b	-ve
8a	Le
=5	=5
4g	long
8f#	de
4e	cet-
8a	-te
=6	=6
(4f#	ri-
8e)	|
4d}	-ve,}
{8dd	{Ou\
=7	=7
4.b	tout
4.a	s'en-
=8	=8
[4.g	-dort,
4g]	|
8dd	Ou\
=9	=9
4.b	tout
4.a	s'en-
=10	=10
2.g}	-dort!}
=11	=11
{4dd	{T'el-
8gg	-le
8dd	qu'une
8cc	hi-
8b	-ron-
=12	=12
(4a	-del-
8cc)	|
4b	-le,
8a	Ma
=13	=13
4g	co-
8f#	-quet-
4e	-te
8a	na-
=14	=14
(4f#	-cel-
8e)	|
4d}	-le,}
{8dd	{Ra-
=15	=15
4.b	-se
4.a	le
=16	=16
[4.g	bord,
4g]	|
8dd	Ra-
=17	=17
4.b	-se
4.a	le
=18	=18
[2.g	bord!
=19	=19
2.g_	|
=20	=20
4g]}	|}
8r	.
4r	.
8r	.
=21	=21
2.r	.
=22	=22
2.r	.
=23	=23
{8b	{Et
8a#	sois
8b	tou-
4ff#	-jours
8ff#	do-
=24	=24
4.ff#	-ci-
4ee	-le
8dd	A
=25	=25
4cc#	l'a-
8ee	-vi-
4a#	-ron
8cc#	ha-
=26	=26
4.b	-bi-
4f#	-le
8f#	Qui
=27	=27
4.dd	te
4.cc#	con-
=28	=28
[4.b	-duit,
4b]	|
8f#	Qui
=29	=29
4.a	te
4.g#	con-
=30	=30
[4.f#	-duit.
4f#]}	|}
8r	.
!!dot added to first f# to correct timing
=31	=31
{8b	{Quand
8a#	la
8b	plage
4ff#	est
8ff#	pro-
=32	=32
4.ff#	-fon-
4ee	-de,
8dd	La
=33	=33
4cc#	mort
8ee	viel-
4a#	-le
8cc#	sur
=34	=34
4.b	l'on-
4f#	-de,
8f#	Pen-
=35	=35
4.dd	-dant
4.cc#	la
=36	=36
[4.b	nuit,
4b]	|
8f#	Pen-
=37	=37
4.ff#	-dant
4.ee	la
=38	=38
4dd	nuit,
8dd	Pen-
4dd	-dant
8dd	la
=39	=39
[2.dd	nuit
=40	=40
2.dd_	|
=41	=41
4dd]	|
8b	Pen-
4cc	-dant
8a	la
=42	=42
(4b	nuit,
8g)	|
(4a	la
8d)	|
=43	=43
[2.dd	nuit
=44	=44
2.dd_	|
=45	=45
4.dd]}	|}
4r	.
8r	.
*-	*-
